X:1
T:Forward!
T:Forward!
T:Grant Colfax Tullar
T:Carrie Elizabeth Ellis Breck, 1900
T:Public Domain Courtesy of the Cyber Hymnal™
T:Public Domain Courtesy of the Cyber Hymnal™
C:Grant Colfax Tullar
Z:Public Domain
Z:Courtesy of the Cyber Hymnal™
%%score ( 1 2 ) ( 3 4 )
L:1/8
Q:1/4=108
M:4/4
K:Ab
V:1 treble 
V:2 treble 
V:3 bass 
V:4 bass 
V:1
 [CE]>[CF] [CE]>[CF] [CE]2 [Ec]2 | [CA]>[CG] [CF]>[CA] [DG]3 z | [DE]>[EF] [DE]>[EF] [DE]2 [Ed]2 | %3
w: 1.~Christ, our might- y cap- tain,|leads a- gainst the foe,|We will ne- ver fal- ter|
w: 2.~Sa- tan’s fear- ful on- slaughts|can- not make us yield;|While we trust in Christ, our|
w: 3.~Let our glor- ious ban- ner|ev- er be un- furled;|From its might- y strong- hold|
w: 4.~Fierce the bat- tle rag- es—|but ’twill not be long,|Then tri- umph- ant, shall we|
 [Ec]>[EB] [EA]>[EB] [Ec]3 z | [CE]>[CF] [CE]>[CF] [CE]2 [Ec]2 | [CA]>[CA] [DG]>[DG] [DF]3 z | %6
w: when He bids us go;|Tho’ His right- eous pur- pose|we may ne- ver know,|
w: buck- ler and our shield;|Press- ing ev- er on— the|Spir- it’s sword we wield,|
w: e- vil shall be hurled;|Christ, our might- y cap- tain,|o- ver- comes the world,|
w: join the bless- èd throng,|Joy- ful- ly u- nit- ing|in the vic- tor’s song—|
 [DE]>[DF] [DG]>[EA] [Ec]2 [DB]2 | [CA]6 z2 ||"^Refrain" !>![Cc]2 !>![Cc]2 !>![Cc]2 !>![Cc]2 | %9
w: Yet we’ll fol- low all the|way.||
w: And we fol- low all the|way.||
w: And we fol- low all the|way.||
w: If we fol- low all the|way.||
 [CE]>[CF] [CG]>[CA] [DG]3 z | !>![Ed]2 !>![Ed]2 !>![Ed]2 !>![Ed]2 | %11
w: ||
w: ||
w: ||
w: ||
 [DE]>[DE] [DG]>[DF] (z2 E/F/ (3G/A/B/) | !>![Cc]2 !>![Cc]2 !>![Cc]2 !>![Cc]2 | %13
w: ||
w: ||
w: ||
w: ||
 [CA]>[CA] [GB]>[_Gc] !fermata![Fd]4 | [Fd]>[Fd] [Fc]>[FB] !>![Ee]2 [Ed]2 | %15
w: ||
w: ||
w: ||
w: ||
 [Ec]2 [DB]2 !fermata![CA]4 |] %16
w: |
w: |
w: |
w: |
V:2
 x8 | x8 | x8 | x8 | x8 | x8 | x8 | x8 || x8 | x8 | x8 | x4 [CE]3 x | x8 | x8 | x8 | x8 |] %16
V:3
 [A,,A,]>[A,,A,] [A,,A,]>[A,,A,] [A,,A,]2 [A,,A,]2 | [A,,E,]>[A,,E,] [A,,A,]>[A,,A,] [E,B,]3 z | %2
w: ~ ~ ~ ~ ~ ~|~ ~ ~ ~ ~|
 [E,G,]>[E,A,] [E,G,]>[E,A,] [E,G,]2 [E,B,]2 | [A,,A,]>[B,,G,] [C,A,]>[E,G,] A,3 z | %4
w: ~ ~ ~ ~ ~ ~|~ ~ ~ ~ ~|
 [A,,A,]>[A,,A,] [A,,A,]>[A,,A,] [A,,A,]2 [A,,A,]2 | [A,,E,]>[A,,E,] [B,,E,]>[C,A,] [D,A,]3 z | %6
w: ~ ~ ~ ~ ~ ~|~ ~ ~ ~ ~|
 [E,G,]>[E,A,] [E,B,]>[E,C] [E,A,]2 [E,G,]2 | [A,,E,A,]6 z2 || A,2 [F,A,]2 [E,A,]2 [C,A,]2 | %9
w: ~ ~ ~ ~ ~ ~|~|For- ward! for- ward!|
 [A,,A,]>[A,,A,] [A,,E,]>[A,,E,] [B,,E,]3 z | [E,G,]2 [F,A,]2 [G,B,]2 [E,G,]2 | %11
w: ’tis the Lord’s com- mand;|For- ward! for- ward!|
 [E,G,]>[E,A,] [E,B,]>[E,G,] [A,,A,]3 z | A,2 [F,A,]2 [E,A,]2 [C,A,]2 | %13
w: to the prom- ised land;|For- ward! for- ward!|
 [A,,A,]>[A,,A,] [A,,A,]>[A,,A,] !fermata![D,A,]4 | [B,,B,]>[B,,B,] [C,=A,]>[D,B,] [E,C]2 [E,B,]2 | %15
w: let the chor- us ring:|We are sure to win with|
 [E,A,]2 [E,G,]2 !fermata![A,,E,A,]4 |] %16
w: Christ, our king!|
V:4
 x8 | x8 | x8 | x4 A,3 x | x8 | x8 | x8 | x8 || A,2 x6 | x8 | x8 | x8 | A,2 x6 | x8 | x8 | x8 |] %16

